X: 35914
T: Sandy's New Chanter
R: hornpipe
M: 4/4
K: Amixolydian
|:f2ef fAdf|g2fg ddg2|fAdf faga|eAce eage|
f2ef fAdf|g2fg BBg2|fAdf eAce|1 d4 d2ag:|2 d4 d2A2||
|:a2fa dffA|g2fg ddg2|fAdf eAce|eAce eage|
[1 a2fa dffA|g2fg ddg2|fAdf eAce|d4 d2A2:|
[2 a2fa fAdf|g2fg ddg2|fAdf eAce|d4 d2A2||
|:fA (3AAA Af fA|g2 fg2B dg|fA (3AAA da ga|eA ce ea ge|
fA (3AAA Af fA|gG Bg2B dg|fA df eA ce|1 d4 d2 Ad:|2 d4 d2 A2||
|:a2 a2 fg af|gB Bg Bd ge|fA (3AAA da ga|eA ce ea ge|
[1 a2a2 fgaf|gBBg Bdge|fAdf eAce|d4 d2A2:|
[2 a2ef fAdf|g2fg BBg2|fAdf eAce|d4 d2A2||

